icons/arrow-reverse-longh.svg

<svg width="24" height="24" viewBox="0 0 24 24" fill="none" xmlns="http://www.w3.org/2000/svg">
<path fill-rule="evenodd" clip-rule="evenodd" d="M17.0394 8.80002L14.4197 11.4197C14.1268 11.7126 14.1268 12.1875 14.4197 12.4804C14.7126 12.7732 15.1875 12.7732 15.4804 12.4804L18.8804 9.08035C19.1509 8.80984 19.325 8.45071 19.325 8.05002C19.325 7.64934 19.1509 7.29021 18.8804 7.01969L15.4804 3.61969C15.1875 3.3268 14.7126 3.3268 14.4197 3.61969C14.1268 3.91259 14.1268 4.38746 14.4197 4.68035L17.0394 7.30002L5.45005 7.30002C5.03584 7.30002 4.70005 7.6358 4.70005 8.05002C4.70005 8.46423 5.03584 8.80002 5.45005 8.80002L17.0394 8.80002ZM19.3 15.95C19.3 16.3642 18.9643 16.7 18.55 16.7L6.96072 16.7L9.58038 19.3197C9.87327 19.6126 9.87327 20.0875 9.58038 20.3803C9.28748 20.6732 8.81261 20.6732 8.51972 20.3803L5.11972 16.9803C4.8492 16.7098 4.67505 16.3507 4.67505 15.95C4.67505 15.5493 4.8492 15.1902 5.11972 14.9197L8.51972 11.5197C8.81261 11.2268 9.28749 11.2268 9.58038 11.5197C9.87327 11.8126 9.87327 12.2875 9.58038 12.5803L6.9607 15.2L18.55 15.2C18.9643 15.2 19.3 15.5358 19.3 15.95Z" fill="black"/>
</svg>

<svg xmlns="http://www.w3.org/2000/svg" fill="none" viewBox="0 0 24 24">
  <path fill="#000" fill-rule="evenodd" d="m17.04 8.8-2.62 2.62a.75.75 0 0 0 1.06 1.06l3.4-3.4c.27-.27.445-.63.445-1.03s-.174-.76-.445-1.03l-3.4-3.4a.75.75 0 0 0-1.06 1.06l2.62 2.62H5.45a.75.75 0 1 0 0 1.5h11.59Zm2.26 7.15a.75.75 0 0 1-.75.75H6.96l2.62 2.62a.75.75 0 1 1-1.06 1.06l-3.4-3.4c-.27-.27-.445-.63-.445-1.03s.174-.76.445-1.03l3.4-3.4a.75.75 0 0 1 1.06 1.06L6.96 15.2h11.59a.75.75 0 0 1 .75.75Z" clip-rule="evenodd"/>
</svg>
